X:1
T:Buxtehude - Aria:  La Capricciosa in G Minor.
%%score { 1 | ( 2 3 ) }
L:1/8
Q:1/4=180
M:6/8
K:G
V:1 treble nm="Harpsichord" snm="Hch."
V:2 bass 
V:3 bass 
V:1
"^Partita 28" (GBd) d3 | (Gce) e3 | (DFA) A3 | (DGB) B3 | (DGB) B3 | (DGB) B3 | (DGB) (FAC) | %7
 (B,DG) G3 :: (B,DG) G3 | (G,CE) E3 | (G,B,D) D2 C | (E,G,B,) B,3 | (DGB) B3 | (A,CE) E3 | %14
 (G,B,D) D3 | (G,B,D) D3 :| %16
V:2
 G,,3 (G,B,D) | E,3 (C,E,A,) | D,3 (D,,D,F,) | G,3 (G,,D,G,) | B,,3 (B,,D,G,) | C,3 (^C,E,G,) | %6
 D,3 D,,3 | G,3 (G,,D,G,) :: G,3 (B,,D,G,) | C,3 (C,E,A,) | D,3 [D,F,]3 | E,,3 E,D,C, | %12
 B,,3 B,,C,D, | C,3 C,D,E, | D,3 (D,,D,F,) | G,3 (G,,B,,D,) :| %16
V:3
 x6 | x6 | x6 | x6 | x6 | x6 | x6 | x6 :: x6 | x6 | x3 D,,3 | x6 | x6 | x6 | x6 | x6 :| %16

